icon/ir/remove-folder.svg

<svg stroke-width="1.5" viewBox="0 0 24 24" fill="none" xmlns="http://www.w3.org/2000/svg" height="1em" width="1em">
  <path d="M18 6H20H22" stroke="currentColor" stroke-linecap="round" stroke-linejoin="round"/>
  <path d="M21.4 20H2.6C2.26863 20 2 19.7314 2 19.4V11H21.4C21.7314 11 22 11.2686 22 11.6V19.4C22 19.7314 21.7314 20 21.4 20Z" stroke="currentColor" stroke-linecap="round" stroke-linejoin="round"/>
  <path d="M2 11V4.6C2 4.26863 2.26863 4 2.6 4H8.77805C8.92127 4 9.05977 4.05124 9.16852 4.14445L12.3315 6.85555C12.4402 6.94876 12.5787 7 12.722 7H14" stroke="currentColor" stroke-linecap="round" stroke-linejoin="round"/>
</svg>

<svg width="24" height="24" stroke-width="1.5" fill="none" xmlns="http://www.w3.org/2000/svg"><path d="M18 6h4M21.4 20H2.6a.6.6 0 0 1-.6-.6V11h19.4a.6.6 0 0 1 .6.6v7.8a.6.6 0 0 1-.6.6ZM2 11V4.6a.6.6 0 0 1 .6-.6h6.178a.6.6 0 0 1 .39.144l3.164 2.712a.6.6 0 0 0 .39.144H14" stroke="currentColor" stroke-linecap="round" stroke-linejoin="round"/></svg>
